X: 1269
T: Kudûmün Rahmet-i Zevk u Safâdır
C: Aziz Mahmud Hüdâî
O: Turkey
F: http://compmusic.upf.edu/node/140
N: cargah--ilahi--devrikebir--kudumun_rahmeti--aziz_mahmud_hudai
N: makam= cargah
N: form= ilahi
N: usul= devrikebir = 28/4
M: 28/4
L: 1/16
K: C _2/4B _3/4d  
Q: 1/4=60
%%MIDI tuningsystem comma53
c8 d4 e4  | d2e2 d2c2 c2d2 c2_1/4B2  | \
w:  Ku dû  |  mün   | 
_1/4BABd c3/2d/cB A6z2  | 
w:  rah   | 
G2A_1/4B A2B2 c2d2 c2B2  | A3/2_1/4B/AG A2B2 c6d2  | \
w:  rah  |  me *  *  *  *  *  ti   | 
d2cd c2d2 c3/2d/c_1/4B ABcd  | 
w:  zevk_  | 
_1/4B2{d}c4z2 e2{f}ed c2B2  | c6z2 d4 e4  | \
w:  u  *  *  zevk_ *  *  *  u   |  sa fâ  | 
d2e2 d2c2 c2d2 c2_1/4B2  | _1/4BABd c3/2d/cB A6z2  | 
w:  dır   |  yâ   | 
G2A_1/4B A2B2 c2{e}d2 c2B2  | A3/2_1/4B/AG A2B2 c6d2  | \
w:  yâ   |  Re *  *  *  *  *  sûl   | 
d2c4d2 c2{d}c_1/4B ABcd  | 
w:  *  Al  | 
_1/4B2{d}c4z2 e3d c4  | =d2e2 d2e2 d6g2  | \
w:  lah   *  *  Ah   |  zu *  *  *  hû  | 
{a}g2f2 e2_1/4a2 g2f2 e2d2  | c2d2 e3/2f/ed c2d2 c2_1/4B2  | 
w:  *  run   |  der  | 
c8 z8  | =d2e2 d2e2 e6g2  | {a}g2f2 e2_1/4a2 g2f2 e2d2  | \
w:  di   |  di  *  *  *  uş  |  *  şâ  | 
c2d2 e3/2f/ed c2d2 c2{_1/4B}d2  | 
w:  ka   | 
c4 z4 =d4 e4  | =d2e2 d2c2 c2_3/4d2 c2_1/4B2  | \
w:  de vâ  |  dır   | 
_1/4BABd c3/2d/cB A6z2  | 
w:  yâ   | 
G2A_1/4B A2B2 c2d2 c2B2  | A3/2_1/4B/AG A2B2 c6d2  | \
w:  yâ   |  Re *  *  *  *  *  sûl   | 
d2c4d2 c2{d}c_1/4B ABcd  | 
w:  *  Al  | 
_1/4B2{d}c6 e3d c4  | c8 d4 e4  | d2e2 d2c2 c2d2 c2_1/4B2  | \
w:  lah  *  *  Al *  lah    |  Ku dû  |  mün   | 
_1/4BABd c3/2d/cB A6z2  | 
w:  rah   | 
G2A_1/4B A2B2 c2d2 c2B2  | A3/2_1/4B/AG A2B2 c6d2  | \
w:  rah  |  me *  *  *  *  *  ti   | 
d2cd c2d2 c3/2d/c_1/4B ABcd  | 
w:  zevk_  | 
_1/4B2{d}c4z2 e2{f}ed c2B2  | c6z2 d4 e4  | \
w:  u  *  *  zevk_ *  *  *  u   |  sa fâ  | 
d2e2 d2c2 c2d2 c2_1/4B2  | _1/4BABd c3/2d/cB A6z2  | 
w:  dır   |  yâ   | 
G2A_1/4B A2B2 c2{e}d2 c2B2  | A3/2_1/4B/AG A2B2 c6d2  | \
w:  yâ   |  Re *  *  *  *  *  sûl   | 
d2c4d2 c2{d}c_1/4B ABcd  | 
w:  *  Al  | 
_1/4B2{d}c4z2 e3d c4  | =d2e2 d2e2 d6g2  | \
w:  lah   *  *  Ah   |  zu *  *  *  hû  | 
{a}g2f2 e2_1/4a2 g2f2 e2d2  | c2d2 e3/2f/ed c2d2 c2_1/4B2  | 
w:  *  run   |  der  | 
c8 z8  | =d2e2 d2e2 e6g2  | {a}g2f2 e2_1/4a2 g2f2 e2d2  | \
w:  di   |  di  *  *  *  uş  |  *  şâ  | 
c2d2 e3/2f/ed c2d2 c2{_1/4B}d2  | 
w:  ka   | 
c4 z4 =d4 e4  | =d2e2 d2c2 c2_3/4d2 c2_1/4B2  | \
w:  de vâ  |  dır   | 
_1/4BABd c3/2d/cB A6z2  | 
w:  yâ   | 
G2A_1/4B A2B2 c2d2 c2B2  | A3/2_1/4B/AG A2B2 c6d2  | \
w:  yâ   |  Re *  *  *  *  *  sûl   | 
d2c4d2 c2{d}c_1/4B ABcd  | 
w:  *  Al  | 
_1/4B2{d}c6 e3d c4  | |


